X:493
T:Reel 493
M:4/4
K:Amaj
L:1/8
A,G,|E,A,A,B, CA,B,G,|E,F,G,E DG,B,G,|E,A,A,B, CDEA| (3GFE  (3DCB, CA,B,G,|E,A,A,B, CDB,G,|E,F,G,E DG,B,G,|E,A,A,B, CDEA| (3GFE  (3DCB, CA,A,2|EF|EAA (3AGA cABA|ED (3B,CB, G,B,G,B,|EAAB cABA| (3GFE  (3DCB, CA,CE|EAAA GABAGA|EAGA BAGB| (3cdc  (3dcB cABA| (3EFG FA EDCA,|
